X:248
T:
R:polska
S:Noterna lemnade av kyrkoherde Joneson, Fardhem.
O:Gotland, Fardhem
M:3/4
L:1/16
K:F
f4 cdcB ABAG|F2f2 agfe f4|b3a a3g g2f2|e3d cdef g4|
b3a a3g g2f2|efga g4 f4::a3b c'2a2f2c2|c'3a d'c'ba b4|
g3a b2g2e2c2|b3g c'bag a4|Acfc Acfc Acfc|Bdfd Bdfd Bdfd|
Acfc Acfc Acfc|Bdfd Bdfd Bdfd|b2ab a2ga g2f2|efed cdef g4|
b2ab a2ga g2f2|efga g4 f4:|

